img/certificate/icon4.svg

<svg width="22" height="26" viewBox="0 0 22 26" fill="none" xmlns="http://www.w3.org/2000/svg">
<path fill-rule="evenodd" clip-rule="evenodd" d="M2.8577 0.0924983C1.94932 0.380979 1.19082 1.01911 0.783516 1.83768C0.368105 2.67259 0.397294 1.83101 0.397294 12.9737C0.397294 24.1163 0.368105 23.2747 0.783516 24.1096C1.11547 24.7767 1.62947 25.2866 2.30194 25.6159C3.1325 26.0226 2.61126 25.9989 10.7727 26C17.2213 26.0007 18.0912 25.9917 18.4417 25.92C19.718 25.659 20.7758 24.6533 21.102 23.3909C21.1923 23.0416 21.1968 22.6401 21.1968 15.0815V7.13917L21.0481 6.9457C20.8267 6.65778 14.5176 0.110767 14.4027 0.0498038C14.3367 0.0147424 12.4583 -0.00169421 8.72199 0.000137734C3.53786 0.0026821 3.11983 0.00924656 2.8577 0.0924983ZM13.4773 3.36868C13.4781 5.74542 13.4955 5.91488 13.7959 6.47392C14.1143 7.06656 14.6393 7.519 15.3038 7.77348L15.6567 7.90864L17.7984 7.92528L19.94 7.94192V15.3106C19.94 20.1098 19.9218 22.7748 19.8877 22.9531C19.734 23.7568 19.1307 24.4176 18.3369 24.6514C18.1078 24.7189 17.1552 24.7286 10.8051 24.7286C3.70212 24.7286 3.52796 24.7264 3.20627 24.6278C2.54463 24.425 1.98399 23.8689 1.77962 23.2126C1.67974 22.8917 1.67795 22.7126 1.67795 12.9737C1.67795 3.18757 1.67928 3.05714 1.78111 2.73009C1.98199 2.08484 2.54129 1.52762 3.19622 1.3201C3.48405 1.22891 3.74572 1.22403 8.48776 1.22143L13.4765 1.21869L13.4773 3.36868ZM17.1947 4.72991L19.0225 6.63819L17.4741 6.65167C15.9407 6.66501 15.9231 6.66399 15.6606 6.54476C15.3067 6.38401 15.0653 6.16555 14.9115 5.86689C14.785 5.6211 14.7845 5.61571 14.7703 3.91572L14.7559 2.21099L15.0614 2.51631C15.2294 2.68424 16.1894 3.68036 17.1947 4.72991ZM10.5561 8.68651C10.4594 8.73541 10.3324 8.84008 10.274 8.91911C10.1696 9.06022 10.1673 9.12317 10.1421 12.5639L10.1165 16.0651L8.81566 14.6752C8.02177 13.827 7.44503 13.2525 7.33581 13.2011C6.99632 13.0413 6.55772 13.2585 6.47616 13.6268C6.40881 13.931 6.53736 14.0939 8.46078 16.1434C9.49695 17.2474 10.4022 18.1881 10.4724 18.2338C10.5427 18.2795 10.7022 18.3168 10.827 18.3168C11.0279 18.3168 11.0828 18.2892 11.3069 18.0751C11.7287 17.6723 14.9315 14.2433 15.0352 14.0835C15.3468 13.6035 14.8985 13.0078 14.3487 13.1712C14.1803 13.2212 13.9249 13.467 12.7986 14.6637L11.4502 16.0963L11.4246 12.5608C11.3961 8.63109 11.4178 8.85499 11.0488 8.68126C10.825 8.57598 10.7736 8.57649 10.5561 8.68651ZM5.29184 20.4821C4.80313 20.7214 4.88156 21.4728 5.41121 21.6254C5.54428 21.6637 7.21336 21.6758 10.9116 21.6652C16.0279 21.6505 16.2262 21.6464 16.3646 21.5534C16.6542 21.3587 16.7341 21.0128 16.5564 20.7238C16.3471 20.3832 16.706 20.4031 10.7987 20.4044C6.13862 20.4054 5.42814 20.4154 5.29184 20.4821Z" fill="white"/>
</svg>

<svg width="22" height="26" fill="none" xmlns="http://www.w3.org/2000/svg"><path fill-rule="evenodd" clip-rule="evenodd" d="M2.858.092C1.949.381 1.19 1.02.784 1.838.368 2.673.397 1.83.397 12.974c0 11.142-.029 10.3.387 11.136a3.27 3.27 0 001.518 1.506c.83.407.31.383 8.47.384 6.45 0 7.32-.008 7.67-.08a3.512 3.512 0 002.66-2.53c.09-.348.095-.75.095-8.309V7.14l-.149-.193C20.827 6.658 14.518.11 14.403.05 14.337.015 12.458-.002 8.722 0 3.538.003 3.12.01 2.858.092zm10.62 3.277c0 2.376.018 2.546.318 3.105a2.83 2.83 0 001.508 1.3l.353.135 2.141.016 2.142.017v7.369c0 4.799-.018 7.464-.052 7.642a2.218 2.218 0 01-1.551 1.698c-.23.068-1.182.078-7.532.078-7.103 0-7.277-.003-7.599-.101a2.21 2.21 0 01-1.426-1.415c-.1-.321-.102-.5-.102-10.24 0-9.785.001-9.916.103-10.243a2.23 2.23 0 011.415-1.41c.288-.091.55-.096 5.292-.099l4.989-.002v2.15zm3.717 1.36l1.828 1.91-1.549.013c-1.533.013-1.55.012-1.813-.107-.354-.161-.596-.38-.75-.678-.126-.246-.127-.251-.14-1.951l-.015-1.705.305.305c.168.168 1.128 1.164 2.134 2.214zm-6.639 3.958a.944.944 0 00-.282.232c-.104.141-.107.204-.132 3.645l-.025 3.501-1.301-1.39c-.794-.848-1.371-1.423-1.48-1.474-.34-.16-.778.057-.86.426-.067.304.061.467 1.985 2.516 1.036 1.104 1.941 2.045 2.011 2.09.07.046.23.084.355.084.2 0 .256-.028.48-.242.422-.403 3.624-3.832 3.728-3.991a.606.606 0 00-.686-.913c-.169.05-.424.296-1.55 1.493l-1.349 1.432-.025-3.535c-.029-3.93-.007-3.706-.376-3.88-.224-.105-.275-.105-.493.006zM5.292 20.482c-.489.24-.41.99.12 1.143.132.039 1.801.05 5.5.04 5.116-.014 5.314-.019 5.453-.112.29-.194.37-.54.191-.83-.209-.34.15-.32-5.757-.319-4.66.001-5.37.011-5.507.078z" fill="#fff"/></svg>
